X:1
T:Title
%%score { ( 1 3 ) | 2 }
L:1/8
Q:1/4=108
M:4/4
K:Bb
V:1 treble nm="Grand Piano"
V:3 treble 
V:2 bass 
V:1
 [DF]2 [DF]>[DF] [DB][DB] [Ec]2 | [Fd]2 [Fd]>[Fd] [DB]4 | F3 c c4 | F3 [DB] [DB]4 | %4
w: Chas.~H.~Gabriel * * * * *||||
 [DF]2 [DF]>[DF] [DB][DB] [Ec]2 | [Fd]2 [Fd]>[Fd] [DB]4 | F3 c c3 d | [DB]6 z2 | c2 c>d c2 AG | %9
w: |||||
 [DF][DB] [EB]2 [DB]4 | c2 c>d c2 AF | [FB][FB] c2 d4 | f>f f2 d2 [FB][FB] | cc d2 [Ge]4 | %14
w: |||||
 d3 F c3 F | [DB]6 z2 | [DF][Fd] [Fd]2 [Fd]4 | [=Ed]3 [Ec] [Ec]4 | z4 z2 [Fe]2 | d2 cB F4 | %20
w: ||||||
 [DF][Fd] [Fd]2 [Fd]4 | [=Ed]3 [Ec] [Ec]4 | z4 z2 [Fe]2 | dd c2 [DB]4 |] %24
w: ||||
V:2
 [B,,B,]2 [B,,B,]>[B,,B,] [B,,F,][B,,F,] [B,,F,]2 | [B,,B,]2 [B,,B,]>[B,,B,] [B,,F,]4 | %2
 [F,A,E]3 [F,A,E] [F,A,E]4 | [B,D]3 [B,,F,] [B,,F,]4 | %4
 [B,,B,]2 [B,,B,]>[B,,B,] [B,,F,][B,,F,] [B,,F,]2 | [B,,B,]2 [B,,B,]>[B,,B,] [B,,F,]4 | %6
 [F,A,E]3 [F,A,E] [F,A,E]3 [F,A,F] | [B,,B,]6 z2 | %8
 [F,A,E]2 [F,A,E]>[F,A,E] [F,A,E]2 [F,CE][F,A,E] | [B,,B,][B,,F,] [B,,G,]2 [B,,F,]4 | %10
 [F,A,F]2 [F,A,F]>[F,B,F] [F,A,F]2 [F,CF][E,A,] | [D,B,][D,B,][K:treble] [F,A,F]2 [B,F]4 | %12
 [B,DF]>[B,DF] [B,DF]2 [B,F]2[K:bass] [D,B,][D,B,] | [F,A,F][F,A,F] [B,F]2[K:bass] [E,B,]4 | %14
 [F,B,F]3 [F,B,D] [F,A,E]3 [F,A,E] | [B,,B,]6 z2 | [B,,B,][B,,B,] [B,,B,]2 [B,,B,]2 [B,,B,]2 | %17
 [C,B,]3 [C,B,] [C,B,]4 | [F,A,]2 [F,C][F,F] [F,C][F,A,][G,B,]A, | %19
 [B,F]2 [B,E][K:bass][B,D] [B,D]4 | [B,,B,][B,,B,] [B,,B,]2 [B,,B,]2 [B,,B,]2 | %21
 [C,B,]3 [C,B,] [C,B,]4 | [F,A,]2 [F,C][F,F] [F,C][F,A,][G,B,][K:treble]A, | %23
 [B,F][B,F][K:bass] [F,A,E]2 [B,,B,]4 |] %24
V:3
 x8 | x8 | x8 | x8 | x8 | x8 | x8 | x8 | x8 | x8 | x8 | x8 | x8 | x8 | x8 | x8 | x8 | x8 | %18
 [Fc]2 [FA][Ac] [Af][Ff] z C | x8 | x8 | x8 | [Fc]2 [FA][Ac] [Af][Ff] z C | x8 |] %24

